src/assets/svg/rustore.svg

<svg width="130" height="46" viewBox="0 0 130 46" fill="none" xmlns="http://www.w3.org/2000/svg">
<path fill-rule="evenodd" clip-rule="evenodd" d="M73.9106 36.57C72.6341 36.57 71.4956 36.225 70.5181 35.5465C69.5628 34.8715 68.8749 33.8825 68.5746 32.752L70.8516 32.361C71.1574 32.9663 71.5933 33.4964 72.1281 33.9135C72.5996 34.247 73.1976 34.408 73.9336 34.408C74.6236 34.408 75.164 34.2585 75.601 33.948C75.8098 33.8105 75.9804 33.6224 76.097 33.4012C76.2137 33.18 76.2725 32.933 76.2681 32.683C76.2681 32.2805 76.1531 31.9585 75.9001 31.694C75.6358 31.4082 75.3146 31.181 74.9571 31.027C74.4607 30.8107 73.9541 30.6189 73.4391 30.452C72.7044 30.2202 71.986 29.9398 71.2886 29.6125C70.7129 29.316 70.2132 28.8911 69.8281 28.3705C69.4172 27.7396 69.216 26.995 69.2531 26.243C69.2531 25.438 69.4371 24.748 69.8281 24.1615C70.2327 23.5579 70.7984 23.0798 71.4611 22.7815C72.1511 22.471 72.9101 22.31 73.7611 22.31C74.9571 22.31 75.992 22.6205 76.866 23.253C77.717 23.8855 78.3265 24.748 78.683 25.852L76.4406 26.22C76.2263 25.6971 75.8673 25.2463 75.4056 24.9205C74.9571 24.6215 74.4396 24.472 73.8416 24.472C73.2206 24.472 72.7031 24.6215 72.2891 24.909C71.8636 25.1965 71.6566 25.599 71.6566 26.128C71.6566 26.519 71.7716 26.841 72.0016 27.1055C72.2546 27.37 72.5765 27.5885 72.956 27.761C73.3356 27.9335 73.8415 28.129 74.4855 28.3475C75.3595 28.6465 76.0841 28.9455 76.6361 29.233C77.2111 29.5205 77.6711 29.946 78.0736 30.498C78.5 31.1147 78.7139 31.8534 78.683 32.6025C78.683 33.4075 78.4646 34.0975 78.0391 34.707C77.6136 35.305 77.0386 35.765 76.3141 36.0985C75.5896 36.409 74.7961 36.57 73.9106 36.57ZM53.0955 36.3745H55.8555L52.0145 31.096C53.0495 30.843 53.8776 30.337 54.4871 29.5895C55.1196 28.8305 55.4301 27.9335 55.4301 26.8985C55.4301 26.036 55.2231 25.2885 54.7976 24.633C54.3768 23.9621 53.7748 23.4238 53.061 23.0805C52.2757 22.6897 51.4082 22.4926 50.531 22.5055H45.425V36.3745H47.7825V31.28H49.45L53.0955 36.3745ZM47.7825 29.118V24.6675H50.531C51.2555 24.6675 51.8536 24.8745 52.3136 25.3C52.7736 25.7025 53.015 26.2315 53.015 26.8985C53.015 27.554 52.7851 28.083 52.3136 28.5085C51.8536 28.911 51.2555 29.118 50.531 29.118H47.771H47.7825ZM59.3976 36.018C59.9457 36.3626 60.5762 36.5539 61.2234 36.5721C61.8706 36.5903 62.5109 36.4347 63.0775 36.1215C63.6125 35.8088 64.0596 35.3657 64.3771 34.8335L64.8371 36.3745H66.5161V26.1395H64.2621V32.062C64.2621 32.7865 64.0436 33.3845 63.618 33.856C63.181 34.316 62.6406 34.546 61.9851 34.546C61.6864 34.5523 61.3899 34.4939 61.116 34.3748C60.842 34.2557 60.5971 34.0787 60.3981 33.856C59.9956 33.396 59.7886 32.798 59.7886 32.062V26.1395H57.5345V32.315C57.5345 33.1315 57.6956 33.856 58.0176 34.5C58.3626 35.144 58.8226 35.65 59.3976 36.018ZM86.9171 36.363L87.1126 34.408H85.0196C84.2606 34.408 83.8696 34.0285 83.8696 33.258V28.106H86.9171V26.151H83.8811V23.1955H82.1906L81.6156 26.1395H79.948V28.1175H81.6156V33.2695C81.6156 34.27 81.9031 35.052 82.4781 35.581C83.0531 36.11 83.904 36.3745 85.008 36.3745H86.9171V36.363ZM93.7596 36.57C92.7131 36.57 91.7701 36.34 90.9306 35.903C90.1241 35.4617 89.4524 34.8099 88.987 34.017C88.5271 33.2005 88.2971 32.292 88.2971 31.257C88.2971 30.2335 88.5271 29.325 88.987 28.52C89.4479 27.7196 90.1256 27.0658 90.9421 26.634C91.7701 26.174 92.7131 25.944 93.7596 25.944C94.7946 25.944 95.7376 26.174 96.5656 26.634C97.4051 27.0825 98.0491 27.715 98.5091 28.5315C98.9691 29.325 99.2105 30.2335 99.2105 31.257C99.2105 32.292 98.9806 33.2005 98.5091 34.017C98.0482 34.8174 97.3705 35.4712 96.5541 35.903C95.7491 36.3515 94.8061 36.57 93.7596 36.57ZM93.7596 34.5C94.6796 34.5 95.4156 34.2125 95.9906 33.6145C96.5656 33.0165 96.8531 32.2345 96.8531 31.257C96.8531 30.291 96.5656 29.509 95.9906 28.9225C95.7033 28.6229 95.3562 28.3872 94.9718 28.2307C94.5874 28.0741 94.1744 28.0003 93.7596 28.014C92.8396 28.014 92.0921 28.313 91.5171 28.9225C90.9421 29.509 90.6546 30.291 90.6546 31.257C90.6546 32.2345 90.9421 33.0165 91.5171 33.6145C92.0921 34.2125 92.8396 34.5 93.7596 34.5ZM103.052 26.1395H101.373V36.3745H103.627V30.337C103.627 28.98 104.294 28.313 105.628 28.313H106.927L106.72 26.1395H106.295C105.651 26.1395 105.099 26.2545 104.65 26.4845C104.202 26.703 103.811 27.0825 103.489 27.623L103.052 26.1395ZM118.22 31.142L118.186 31.8665H109.975C110.09 32.6715 110.412 33.3155 110.964 33.7985C111.552 34.2808 112.297 34.5305 113.057 34.5C113.632 34.5 114.149 34.385 114.609 34.1665C115.081 33.948 115.437 33.649 115.69 33.2695L117.806 33.6145C117.453 34.5448 116.78 35.3191 115.909 35.7995C114.999 36.3188 113.966 36.5849 112.919 36.57C111.907 36.57 110.987 36.34 110.17 35.903C109.387 35.4545 108.739 34.8029 108.296 34.017C107.847 33.212 107.629 32.292 107.629 31.257C107.629 30.2335 107.859 29.325 108.296 28.5315C108.73 27.7356 109.38 27.078 110.17 26.634C110.987 26.174 111.895 25.944 112.93 25.944C113.942 25.944 114.851 26.174 115.644 26.634C116.44 27.0644 117.095 27.7153 117.53 28.5085C117.99 29.2905 118.22 30.176 118.22 31.142ZM112.93 27.922C112.284 27.904 111.651 28.1069 111.136 28.497C110.642 28.8995 110.297 29.4285 110.113 30.107H115.771C115.596 29.482 115.225 28.9296 114.713 28.5315C114.207 28.1204 113.57 27.9041 112.919 27.922H112.93Z" fill="white"/>
<path d="M45.425 18.63V15.502H45.655C45.8874 15.508 46.1133 15.4258 46.2875 15.272C46.4485 15.1225 46.5865 14.8695 46.7015 14.49C46.8495 13.9757 46.9458 13.448 46.989 12.9145L47.4261 8.51004H52.4171V15.502H53.6245V18.607H52.4171V16.56H46.621V18.607H45.425V18.63ZM47.472 15.502H51.1865V9.57954H48.5415L48.1965 12.9835C48.139 13.6735 48.047 14.214 47.932 14.5935C47.817 14.9615 47.6675 15.2375 47.472 15.4445V15.502ZM57.3275 16.721C56.764 16.721 56.2696 16.5945 55.8441 16.33C55.4184 16.0693 55.0786 15.6894 54.8665 15.2375C54.6365 14.7545 54.5215 14.191 54.5215 13.547C54.5215 12.903 54.6365 12.351 54.8665 11.868C55.0965 11.3965 55.4186 11.0285 55.8441 10.7755C56.2696 10.511 56.764 10.3845 57.339 10.3845C57.891 10.3845 58.3855 10.511 58.7996 10.7755C59.225 11.0285 59.5586 11.3965 59.7886 11.868C60.0186 12.3395 60.1335 12.903 60.1335 13.547C60.1335 14.191 60.0186 14.7545 59.7886 15.2375C59.5586 15.6975 59.225 16.077 58.7996 16.33C58.3855 16.5945 57.891 16.721 57.3275 16.721ZM57.3275 15.709C57.822 15.709 58.213 15.525 58.5005 15.134C58.7765 14.7545 58.9145 14.214 58.9145 13.547C58.9145 12.8685 58.7765 12.351 58.5005 11.96C58.3677 11.7748 58.1911 11.6253 57.9864 11.525C57.7817 11.4246 57.5553 11.3765 57.3275 11.385C56.833 11.385 56.442 11.5805 56.166 11.96C55.8785 12.351 55.7406 12.88 55.7406 13.547C55.7406 14.2255 55.8785 14.7545 56.166 15.1455C56.442 15.525 56.833 15.7205 57.3275 15.7205V15.709ZM64.1355 16.721C63.5605 16.721 63.066 16.5945 62.6406 16.33C62.2149 16.0693 61.8751 15.6894 61.663 15.2375C61.433 14.7545 61.318 14.2025 61.318 13.5585C61.318 12.9145 61.433 12.351 61.663 11.868C61.893 11.3965 62.215 11.0285 62.629 10.7755C63.0545 10.511 63.549 10.3845 64.1355 10.3845C64.7795 10.3845 65.32 10.5455 65.757 10.8445C66.217 11.155 66.5045 11.6035 66.6425 12.167H65.4235C65.3183 11.926 65.1417 11.7229 64.9177 11.5852C64.6936 11.4474 64.4327 11.3816 64.17 11.3965C63.6525 11.3965 63.25 11.5805 62.9625 11.9715C62.675 12.351 62.5371 12.88 62.5371 13.5585C62.5371 14.237 62.675 14.766 62.9625 15.1455C63.25 15.525 63.6525 15.7205 64.1815 15.7205C64.5035 15.7205 64.7795 15.64 65.021 15.4905C65.2589 15.3407 65.4314 15.1066 65.504 14.835H66.723C66.6008 15.3943 66.2723 15.8871 65.803 16.215C65.3431 16.56 64.791 16.721 64.1355 16.721ZM70.5065 16.5715H69.322V11.5345H67.3671V10.534H72.473V11.546H70.495V16.56L70.5065 16.5715ZM77.6826 10.534H78.8785L76.6591 17.0315C76.4981 17.5145 76.3141 17.894 76.1186 18.147C75.9438 18.3957 75.6999 18.5877 75.417 18.699C75.1296 18.814 74.7615 18.86 74.29 18.86H73.83V17.825H74.3245C74.5775 17.825 74.7845 17.7905 74.9226 17.7445C75.0631 17.69 75.1835 17.5937 75.2675 17.4685C75.3896 17.2894 75.49 17.0964 75.5665 16.8935L75.6241 16.721L73.1515 10.534H74.4165L76.1415 15.134H76.1991L77.6711 10.534H77.6826ZM81.2936 16.5715H80.1205V10.534H85.0655V16.5715H83.8811V11.5345H81.2936V16.5715ZM90.804 13.0065V10.534H91.9771V16.5715H90.804V14.007H88.1245V16.5715H86.9515V10.534H88.1245V13.0065H90.804ZM96.3355 16.721C95.772 16.721 95.2776 16.5945 94.8521 16.33C94.4264 16.0693 94.0866 15.6894 93.8745 15.2375C93.6445 14.7545 93.5295 14.191 93.5295 13.547C93.5295 12.903 93.6445 12.351 93.8745 11.868C94.1045 11.3965 94.4266 11.0285 94.8521 10.7755C95.2776 10.511 95.772 10.3845 96.347 10.3845C96.922 10.3845 97.3935 10.511 97.819 10.7755C98.2445 11.0285 98.5666 11.3965 98.7966 11.868C99.0266 12.3395 99.1415 12.903 99.1415 13.547C99.1415 14.191 99.0266 14.7545 98.7966 15.2375C98.5666 15.6975 98.2445 16.077 97.819 16.33C97.3935 16.5945 96.899 16.721 96.3355 16.721ZM96.3355 15.7205C96.83 15.7205 97.2211 15.525 97.5085 15.1455C97.7845 14.7545 97.9226 14.2255 97.9226 13.5355C97.9226 12.8685 97.7845 12.351 97.5085 11.96C97.3757 11.7748 97.1991 11.6253 96.9944 11.525C96.7897 11.4246 96.5633 11.3765 96.3355 11.385C95.841 11.385 95.4501 11.5805 95.174 11.96C94.8866 12.351 94.7485 12.88 94.7485 13.547C94.7485 14.2255 94.8866 14.7545 95.174 15.1455C95.4501 15.525 95.841 15.7205 96.3355 15.7205ZM107.491 13.3975C108.204 13.6275 108.56 14.1105 108.56 14.8235C108.56 15.3525 108.365 15.7895 107.985 16.1C107.594 16.422 107.065 16.5715 106.41 16.5715H103.707V10.534H106.352C106.95 10.534 107.445 10.6835 107.801 10.971C108.181 11.247 108.376 11.6265 108.376 12.0865C108.383 12.3577 108.302 12.6237 108.146 12.8455C107.983 13.0684 107.759 13.2399 107.502 13.34V13.3975H107.491ZM104.88 11.4885V12.9835H106.318C106.594 12.9835 106.801 12.926 106.95 12.788C107.027 12.7192 107.088 12.6338 107.128 12.5383C107.168 12.4427 107.186 12.3394 107.18 12.236C107.186 12.1327 107.168 12.0294 107.128 11.9338C107.088 11.8383 107.027 11.7529 106.95 11.684C106.772 11.5385 106.547 11.4647 106.318 11.477H104.88V11.4885ZM106.387 15.6285C106.65 15.6433 106.909 15.557 107.111 15.387C107.203 15.3074 107.275 15.2082 107.323 15.0966C107.371 14.9851 107.393 14.8642 107.387 14.743C107.393 14.6234 107.372 14.504 107.324 14.3942C107.276 14.2844 107.203 14.1873 107.111 14.1105C106.907 13.9448 106.648 13.8625 106.387 13.8805H104.88V15.6285H106.387Z" fill="white"/>
<path d="M11.1435 34.8565C13.0755 36.8 16.2035 36.8 22.448 36.8H23.552C29.7964 36.8 32.9244 36.8 34.8564 34.8565C36.7999 32.9245 36.7999 29.7965 36.7999 23.552V22.448C36.7999 16.2035 36.7999 13.0755 34.8564 11.1435C32.9244 9.20001 29.7964 9.20001 23.552 9.20001H22.448C16.2035 9.20001 13.0755 9.20001 11.1435 11.1435C9.19995 13.0755 9.19995 16.2035 9.19995 22.448V23.552C9.19995 29.7965 9.19995 32.913 11.1435 34.8565Z" fill="#3375F6"/>
<path fill-rule="evenodd" clip-rule="evenodd" d="M30.5325 27.554L28.658 27.094C28.5475 27.0622 28.45 26.996 28.3797 26.905C28.3094 26.814 28.2699 26.7029 28.267 26.588L28.037 19.711C28.0006 19.2966 27.8441 18.9018 27.5868 18.575C27.3294 18.2482 26.9823 18.0036 26.588 17.871C26.5679 17.862 26.5452 17.8605 26.5241 17.8669C26.503 17.8732 26.4849 17.8869 26.473 17.9055C26.4637 17.9226 26.4609 17.9425 26.4651 17.9615C26.4693 17.9806 26.4803 17.9974 26.496 18.009C26.6685 18.147 27.1515 18.584 27.1515 19.343V28.336C27.1515 29.1985 26.335 29.831 25.484 29.624L23.5865 29.1525C23.4821 29.1174 23.3909 29.0512 23.3251 28.9628C23.2594 28.8744 23.2222 28.7681 23.2185 28.658L22.9885 21.781C22.9521 21.3666 22.7956 20.9718 22.5383 20.645C22.2809 20.3182 21.9338 20.0736 21.5395 19.941C21.5194 19.932 21.4967 19.9305 21.4756 19.9369C21.4545 19.9432 21.4364 19.9569 21.4245 19.9755C21.4182 19.9844 21.4137 19.9946 21.4114 20.0053C21.4091 20.0161 21.409 20.0272 21.4112 20.0379C21.4133 20.0487 21.4177 20.0589 21.4239 20.068C21.4302 20.077 21.4382 20.0847 21.4475 20.0905C21.62 20.2055 22.103 20.6655 22.103 21.413V30.406C22.103 31.28 21.2865 31.901 20.4355 31.7055L15.065 30.36C14.7052 30.2705 14.3854 30.0636 14.1563 29.772C13.9272 29.4804 13.8019 29.1208 13.8 28.75V19.7455C13.8 18.8715 14.6165 18.239 15.4675 18.446L18.8485 19.2855V17.6755C18.8485 16.8015 19.665 16.1575 20.516 16.376L23.897 17.2155V15.594C23.897 14.72 24.725 14.099 25.5645 14.2945L30.935 15.64C31.2949 15.7295 31.6147 15.9364 31.8438 16.228C32.0729 16.5195 32.1982 16.8792 32.2 17.25V26.266C32.2 27.1285 31.3835 27.761 30.5325 27.554Z" fill="white"/>
</svg>

<svg width="130" height="46" fill="none" xmlns="http://www.w3.org/2000/svg"><path fill-rule="evenodd" clip-rule="evenodd" d="M73.91 36.57c-1.276 0-2.414-.345-3.392-1.023a4.99 4.99 0 0 1-1.943-2.795l2.277-.391a4.598 4.598 0 0 0 1.276 1.553c.472.333 1.07.494 1.806.494.69 0 1.23-.15 1.667-.46a1.482 1.482 0 0 0 .667-1.265c0-.402-.115-.724-.368-.989a2.785 2.785 0 0 0-.943-.667 16.65 16.65 0 0 0-1.518-.575 17.346 17.346 0 0 1-2.15-.84 4.22 4.22 0 0 1-1.46-1.241 3.576 3.576 0 0 1-.576-2.128c0-.805.184-1.495.575-2.081a3.886 3.886 0 0 1 1.633-1.38c.69-.311 1.45-.472 2.3-.472 1.196 0 2.231.31 3.105.943.851.633 1.46 1.495 1.817 2.599l-2.242.368a2.968 2.968 0 0 0-1.035-1.3c-.449-.299-.966-.448-1.564-.448-.621 0-1.139.15-1.553.437-.425.288-.632.69-.632 1.219 0 .391.115.713.345.977.253.265.575.483.954.656.38.172.885.368 1.53.587.873.299 1.598.598 2.15.885.575.287 1.035.713 1.438 1.265a3.45 3.45 0 0 1 .609 2.104c0 .806-.218 1.495-.644 2.105-.425.598-1 1.058-1.725 1.392a6.015 6.015 0 0 1-2.403.471zm-20.814-.196h2.76l-3.842-5.278c1.035-.253 1.864-.759 2.473-1.506.633-.76.943-1.657.943-2.692 0-.862-.207-1.61-.632-2.265a4.198 4.198 0 0 0-1.737-1.552 5.497 5.497 0 0 0-2.53-.575h-5.106v13.868h2.358V31.28h1.667l3.645 5.094zm-5.313-7.256v-4.45h2.748c.724 0 1.323.207 1.783.632.46.402.701.931.701 1.598 0 .656-.23 1.185-.701 1.61-.46.403-1.059.61-1.783.61h-2.76.011zm11.615 6.9a3.622 3.622 0 0 0 3.68.103 3.67 3.67 0 0 0 1.3-1.288l.46 1.541h1.678V26.14h-2.254v5.923c0 .724-.218 1.323-.644 1.794-.437.46-.977.69-1.633.69a2.07 2.07 0 0 1-1.587-.69c-.402-.46-.61-1.058-.61-1.794V26.14h-2.253v6.175c0 .817.16 1.541.483 2.185.345.644.805 1.15 1.38 1.518zm27.52.345.195-1.955H85.02c-.76 0-1.15-.38-1.15-1.15v-5.152h3.047v-1.955h-3.036v-2.956h-1.69l-.575 2.945h-1.668v1.977h1.668v5.152c0 1.001.287 1.783.862 2.312.575.529 1.426.793 2.53.793h1.91v-.011zm6.842.207c-1.047 0-1.99-.23-2.83-.667a5.083 5.083 0 0 1-1.943-1.886c-.46-.817-.69-1.725-.69-2.76 0-1.024.23-1.932.69-2.737a4.899 4.899 0 0 1 1.955-1.886c.828-.46 1.771-.69 2.818-.69 1.035 0 1.978.23 2.806.69a4.753 4.753 0 0 1 1.943 1.898c.46.793.701 1.701.701 2.725 0 1.035-.23 1.943-.7 2.76a4.9 4.9 0 0 1-1.956 1.886c-.805.449-1.748.667-2.794.667zm0-2.07c.92 0 1.656-.288 2.23-.886.576-.597.863-1.38.863-2.357 0-.966-.287-1.748-.862-2.335a2.956 2.956 0 0 0-2.231-.908c-.92 0-1.668.299-2.243.909-.575.586-.862 1.368-.862 2.334 0 .977.287 1.76.862 2.357.575.599 1.323.886 2.243.886zm9.292-8.36h-1.679v10.234h2.254v-6.037c0-1.357.667-2.024 2.001-2.024h1.299l-.207-2.173h-.425c-.644 0-1.196.114-1.645.345-.448.218-.839.598-1.161 1.138l-.437-1.483zm15.168 5.002-.034.724h-8.211c.115.806.437 1.45.989 1.932a3.104 3.104 0 0 0 2.093.702c.575 0 1.092-.115 1.552-.334.472-.218.828-.517 1.081-.896l2.116.344a4.196 4.196 0 0 1-1.897 2.186c-.91.519-1.943.785-2.99.77-1.012 0-1.932-.23-2.749-.667a5.009 5.009 0 0 1-1.874-1.886c-.449-.805-.667-1.725-.667-2.76 0-1.024.23-1.932.667-2.726a4.83 4.83 0 0 1 1.874-1.897c.817-.46 1.725-.69 2.76-.69 1.012 0 1.921.23 2.714.69a4.701 4.701 0 0 1 1.886 1.875c.46.782.69 1.667.69 2.633zm-5.29-3.22a2.84 2.84 0 0 0-1.794.575c-.494.402-.839.931-1.023 1.61h5.658a3.031 3.031 0 0 0-1.058-1.575 2.727 2.727 0 0 0-1.794-.61h.011z" fill="#fff"/><path d="M45.425 18.63v-3.128h.23a.92.92 0 0 0 .633-.23c.16-.15.299-.402.414-.782a8.044 8.044 0 0 0 .287-1.575l.437-4.405h4.991v6.992h1.207v3.105h-1.207V16.56h-5.796v2.047h-1.196v.023zm2.047-3.128h3.715V9.58h-2.645l-.346 3.403c-.057.69-.149 1.231-.264 1.61-.115.368-.265.645-.46.851v.058zm9.855 1.219c-.563 0-1.057-.127-1.483-.391a2.553 2.553 0 0 1-.977-1.092c-.23-.483-.345-1.047-.345-1.691 0-.644.114-1.196.345-1.679.23-.472.552-.84.977-1.093.426-.264.92-.39 1.495-.39.552 0 1.047.126 1.46.39.426.253.76.621.99 1.093.23.471.344 1.035.344 1.679 0 .644-.114 1.207-.344 1.69-.23.46-.564.84-.99 1.093-.413.265-.908.391-1.471.391zm0-1.012c.495 0 .886-.184 1.174-.575.276-.38.413-.92.413-1.587 0-.679-.138-1.196-.413-1.587a1.38 1.38 0 0 0-1.173-.575c-.495 0-.886.196-1.162.575-.287.391-.425.92-.425 1.587 0 .678.138 1.207.425 1.598.276.38.667.575 1.162.575v-.011zm6.808 1.012c-.575 0-1.069-.127-1.494-.391a2.553 2.553 0 0 1-.978-1.092c-.23-.483-.345-1.035-.345-1.68 0-.643.115-1.207.345-1.69.23-.472.552-.84.966-1.093.425-.264.92-.39 1.506-.39.644 0 1.185.16 1.622.46.46.31.747.758.885 1.322h-1.218a1.288 1.288 0 0 0-1.254-.77c-.517 0-.92.184-1.208.575-.287.379-.425.908-.425 1.587 0 .678.138 1.207.425 1.587.288.379.69.574 1.22.574.322 0 .597-.08.839-.23.238-.15.41-.383.483-.655h1.219a2.276 2.276 0 0 1-.92 1.38c-.46.345-1.012.506-1.668.506zm6.371-.15h-1.184v-5.037h-1.955v-1h5.106v1.012h-1.978v5.014l.011.012zm7.177-6.037h1.195l-2.219 6.498c-.16.483-.345.862-.54 1.115-.175.249-.42.44-.702.552-.287.115-.656.161-1.127.161h-.46v-1.035h.495c.252 0 .46-.034.598-.08.14-.055.26-.151.344-.277.123-.179.223-.372.3-.575l.057-.172-2.472-6.187h1.264l1.725 4.6h.058l1.472-4.6h.012zm3.61 6.037h-1.172v-6.037h4.945v6.037H83.88v-5.037h-2.587v5.037zm9.511-3.565v-2.472h1.173v6.037h-1.173v-2.564h-2.68v2.565h-1.172v-6.038h1.172v2.473h2.68zm5.531 3.715c-.563 0-1.057-.127-1.483-.391a2.553 2.553 0 0 1-.978-1.092c-.23-.483-.344-1.047-.344-1.691 0-.644.114-1.196.344-1.679.23-.472.553-.84.978-1.093.426-.264.92-.39 1.495-.39.575 0 1.047.126 1.472.39.425.253.748.621.978 1.093.23.471.344 1.035.344 1.679 0 .644-.114 1.207-.344 1.69-.23.46-.552.84-.978 1.093-.425.265-.92.391-1.484.391zm0-1c.495 0 .886-.196 1.174-.575.275-.392.414-.92.414-1.61 0-.668-.139-1.185-.415-1.576a1.38 1.38 0 0 0-1.172-.575c-.495 0-.886.196-1.162.575-.287.391-.425.92-.425 1.587 0 .678.138 1.207.425 1.598.276.38.667.575 1.161.575zm11.156-2.323c.713.23 1.069.713 1.069 1.425 0 .53-.195.966-.575 1.277-.391.322-.92.471-1.575.471h-2.703v-6.037h2.645c.598 0 1.093.15 1.449.437.38.276.575.655.575 1.115.007.272-.074.538-.23.76a1.45 1.45 0 0 1-.644.494v.058h-.011zm-2.611-1.91v1.495h1.438c.276 0 .483-.057.632-.195a.696.696 0 0 0 .23-.552.68.68 0 0 0-.23-.552.92.92 0 0 0-.632-.207h-1.438v.011zm1.507 4.14c.263.015.522-.071.724-.241a.802.802 0 0 0 .276-.644.773.773 0 0 0-.276-.633 1.036 1.036 0 0 0-.724-.23h-1.507v1.748h1.507z" fill="#fff"/><path d="M11.143 34.856c1.932 1.944 5.06 1.944 11.305 1.944h1.104c6.244 0 9.372 0 11.304-1.944 1.944-1.931 1.944-5.06 1.944-11.304v-1.104c0-6.245 0-9.373-1.944-11.305C32.924 9.2 29.796 9.2 23.552 9.2h-1.104c-6.245 0-9.373 0-11.305 1.944C9.2 13.075 9.2 16.203 9.2 22.447v1.104c0 6.245 0 9.361 1.944 11.304z" fill="#3375F6"/><path fill-rule="evenodd" clip-rule="evenodd" d="m30.532 27.554-1.874-.46a.54.54 0 0 1-.391-.506l-.23-6.877a2.139 2.139 0 0 0-1.449-1.84.091.091 0 0 0-.115.035.08.08 0 0 0 .023.103c.173.138.655.575.655 1.334v8.993c0 .863-.816 1.495-1.667 1.288l-1.898-.471a.54.54 0 0 1-.367-.495l-.23-6.877a2.139 2.139 0 0 0-1.45-1.84.091.091 0 0 0-.115.035.081.081 0 0 0 0 .092.082.082 0 0 0 .024.022c.172.116.655.576.655 1.323v8.993c0 .874-.817 1.495-1.668 1.3l-5.37-1.346a1.668 1.668 0 0 1-1.265-1.61v-9.005a1.34 1.34 0 0 1 1.667-1.299l3.382.84v-1.61c0-.874.816-1.518 1.667-1.3l3.381.84v-1.622c0-.874.828-1.495 1.668-1.3l5.37 1.346a1.667 1.667 0 0 1 1.265 1.61v9.016c0 .863-.817 1.495-1.668 1.288z" fill="#fff"/></svg>
